X:65
T: Minchen wollt spaziern gehn (Band 1), S. 193
N: P0840
O: Lothringen
S: PINCK, Louis: Verklingende Weisen, Bd 1, Metz 1928]
R: Liebe, Untreue, Beischlaf]
M: 6/8
L: 1/8
K: Bb
 | D2EF2B | BAGG2F
CEGFAc | B4-Bz
D2EF2B | BAGG2F
CEGFAc | B4-B
F | F2ddcc | BddcBA | GGGAGA | B4-B
F | F2ddcc | BddcBA | GGGAGA | B4-Bz

